X:1
T: Drumblain's Reel
C:William Marshall
R:Reel
Q: 232
K:F
M:4/4
L:1/8
|:A|F1/2F1/2F fd cf cA|Bd cA BG GA|F1/2F1/2F fd cf cA|Bd cB AF FA|
F1/2F1/2F fd cf cA|Bd cA BG GA|F1/2F1/2F fd cf cA|Bd cB AF Fc|
fg af df af|df cA BG Ge|fg af bg af|df cB AF Fe|
fg af bg af|cf af bg ga|fc Af df cA|Bd cB AF F:|
